src/lib/packages/icons/src/assets/line/sliders-vertical-alt.svg

<svg xmlns="http://www.w3.org/2000/svg" width="24" height="24" fill="none"><path fill="currentColor" d="M17 2.25A3.754 3.754 0 0 0 13.25 6 3.754 3.754 0 0 0 17 9.75 3.754 3.754 0 0 0 20.75 6 3.754 3.754 0 0 0 17 2.25Zm0 6A2.252 2.252 0 0 1 14.75 6 2.252 2.252 0 0 1 17 3.75 2.252 2.252 0 0 1 19.25 6 2.252 2.252 0 0 1 17 8.25Zm-10 6A3.754 3.754 0 0 0 3.25 18 3.754 3.754 0 0 0 7 21.75 3.754 3.754 0 0 0 10.75 18 3.754 3.754 0 0 0 7 14.25Zm0 6A2.252 2.252 0 0 1 4.75 18 2.252 2.252 0 0 1 7 15.75 2.252 2.252 0 0 1 9.25 18 2.252 2.252 0 0 1 7 20.25Zm10-6a.75.75 0 0 0-.75.75v6a.75.75 0 0 0 1.5 0v-6a.75.75 0 0 0-.75-.75ZM7 9.75A.75.75 0 0 0 7.75 9V3a.75.75 0 0 0-1.5 0v6c0 .414.336.75.75.75Z"/></svg>

<svg width="24" height="24" viewBox="0 0 24 24" fill="none" xmlns="http://www.w3.org/2000/svg">
<path d="M17 2.25C14.932 2.25 13.25 3.932 13.25 6C13.25 8.068 14.932 9.75 17 9.75C19.068 9.75 20.75 8.068 20.75 6C20.75 3.932 19.068 2.25 17 2.25ZM17 8.25C15.759 8.25 14.75 7.241 14.75 6C14.75 4.759 15.759 3.75 17 3.75C18.241 3.75 19.25 4.759 19.25 6C19.25 7.241 18.241 8.25 17 8.25ZM7 14.25C4.932 14.25 3.25 15.932 3.25 18C3.25 20.068 4.932 21.75 7 21.75C9.068 21.75 10.75 20.068 10.75 18C10.75 15.932 9.068 14.25 7 14.25ZM7 20.25C5.759 20.25 4.75 19.241 4.75 18C4.75 16.759 5.759 15.75 7 15.75C8.241 15.75 9.25 16.759 9.25 18C9.25 19.241 8.241 20.25 7 20.25ZM17 14.25C16.586 14.25 16.25 14.586 16.25 15V21C16.25 21.414 16.586 21.75 17 21.75C17.414 21.75 17.75 21.414 17.75 21V15C17.75 14.586 17.414 14.25 17 14.25ZM7 9.75C7.414 9.75 7.75 9.414 7.75 9V3C7.75 2.586 7.414 2.25 7 2.25C6.586 2.25 6.25 2.586 6.25 3V9C6.25 9.414 6.586 9.75 7 9.75Z" fill="currentColor"/>
</svg>
